workspaces/osm/styles/symbols/recycling.svg

<?xml version="1.0" encoding="UTF-8" standalone="no"?>
<!-- Created with Inkscape (http://www.inkscape.org/) -->

<svg
   xmlns="http://www.w3.org/2000/svg"
   version="1.1"
   width="14"
   height="14"
   viewBox="0 0 14 14">
  <rect
     width="14"
     height="14"
     x="0"
     y="0"
     id="canvas"
     style="fill:none;stroke:none;visibility:hidden" />
  <path
     d="M 5.111113,8.690628 3.513352,5.804047 0.3,5.804047 1.60621,6.5880837 0.798678,8.031102 c -0.06887,0.130859 -0.103304,0.267511 -0.103301,0.409961 -3e-6,0.142456 0.03443,0.27911 0.103301,0.40996 l 1.271077,2.298282 c 0.05733,-0.166376 0.11466,-0.309011 0.171995,-0.427902 L 3.82273,7.906591 5.111113,8.690628 z m -2.38799,2.316224 c -0.09194,0.154416 -0.137914,0.320611 -0.13791,0.498585 -4e-6,0.273307 0.09456,0.504931 0.283685,0.694868 0.189119,0.189939 0.415298,0.284906 0.678537,0.284906 l 3.161963,0 0,-2.654413 -3.333432,0 C 3.352886,9.878288 3.266892,10.0327 3.117975,10.294041 l -0.394852,0.712811 z m 4.278351,-6.5745954 3.196047,0 L 11.812587,1.54622 10.506901,2.3302555 9.698844,0.8866933 C 9.549912,0.6137609 9.320934,0.4772893 9.011916,0.4772767 l -2.543205,0 c 0.10312,0.1185426 0.189116,0.2372528 0.257992,0.3561331 L 8.289856,3.6482199 8.032389,3.8086154 7.001474,4.4322566 z M 5.437797,0.6197306 C 5.07108,0.6197421 4.796134,0.7859374 4.61296,1.1183163 L 3.015198,3.9690109 C 3.622066,4.3372941 4.360906,4.7767964 5.231719,5.2875185 5.746994,4.372999 6.302478,3.3752843 6.898173,2.2943703 L 6.262635,1.1183163 C 6.079446,0.7859374 5.804501,0.6197421 5.437797,0.6197306 l 0,0 z m 4.106882,9.1751824 0,-0.320793 0,-1.228795 L 7.946393,11.131363 9.544679,14 l 0,-1.55013 1.597761,0 c 0.309366,0 0.54411,-0.136653 0.704231,-0.409962 l 1.271602,-2.298279 c -0.171656,0.04749 -0.314811,0.07123 -0.42946,0.07123 L 9.544679,9.794909 z m 2.37121,-4.88147 c -0.05735,0.035533 -0.79636,0.4750321 -2.217045,1.3185066 0.710337,1.2708484 1.271764,2.2745434 1.684282,3.0110934 l 1.288383,0 c 0.378233,2e-6 0.658946,-0.166373 0.842142,-0.499132 0.171629,-0.320788 0.165862,-0.647379 -0.01731,-0.979774 l -1.58045,-2.850694 z"
     id="recycling" />
</svg>

<svg width="14" height="14" version="1.1" viewBox="0 0 14 14" xmlns="http://www.w3.org/2000/svg"><rect id="a" width="14" height="14" fill="none" visibility="hidden"/><path id="b" d="m5.1111 8.6906c-0.53259-0.96219-1.0652-1.9244-1.5978-2.8866h-3.2134c0.4354 0.26135 0.87081 0.52269 1.3062 0.78404-0.28191 0.51525-0.58414 1.0203-0.85273 1.5422-0.14652 0.33169 6.3179e-4 0.67925 0.17935 0.96325 0.37898 0.68524 0.75795 1.3705 1.1369 2.0557 0.17282-0.51752 0.49206-0.96631 0.74404-1.4464 0.33631-0.59878 0.67262-1.1976 1.0089-1.7963 0.42946 0.26135 0.85892 0.52269 1.2884 0.78404zm-2.388 2.3162c-0.32169 0.49909-0.060519 1.2348 0.50009 1.4238 0.34261 0.09761 0.70474 0.03806 1.0568 0.05453h2.4294v-2.6544h-3.3334c-0.2162 0.39274-0.43694 0.78308-0.65284 1.1761zm4.2784-6.5746h3.196c0.53836-0.96201 1.0767-1.924 1.6151-2.886-0.43523 0.26135-0.87046 0.52269-1.3057 0.78404-0.30268-0.52592-0.58029-1.0677-0.90027-1.5827-0.24157-0.33138-0.67313-0.26479-1.0303-0.27028h-2.1076c0.32211 0.38864 0.52027 0.85932 0.77706 1.2908 0.34803 0.62671 0.69606 1.2534 1.0441 1.8801-0.4261 0.2668-0.85905 0.52249-1.2884 0.78404zm-1.5637-3.8125c-0.40414-0.02437-0.73739 0.26774-0.8926 0.61948-0.51 0.90993-1.02 1.8199-1.53 2.7298 0.73509 0.44578 1.475 0.88346 2.2165 1.3185 0.56052-0.9949 1.1153-1.9931 1.6665-2.9931-0.25212-0.44682-0.47074-0.91438-0.74826-1.3455-0.16714-0.21794-0.43989-0.3354-0.71212-0.32915zm4.1069 9.1752v-1.5496c-0.53276 0.96201-1.0655 1.924-1.5983 2.886 0.53276 0.95621 1.0655 1.9124 1.5983 2.8686v-1.5501c0.57003-0.0039 1.1406 0.0081 1.7103-0.0064 0.36814-0.02222 0.57957-0.34713 0.72591-0.64609 0.37914-0.68525 0.75827-1.3705 1.1374-2.0557-0.42983 0.12214-0.88003 0.050929-1.3204 0.066144-0.75106-0.00429-1.5021-0.00858-2.2532-0.01286zm2.3712-4.8815c-0.73793 0.44132-1.4779 0.87914-2.217 1.3185 0.56114 1.0039 1.1224 2.0077 1.6843 3.0111 0.49676-0.00894 0.99571 0.019544 1.4909-0.017546 0.64546-0.10408 0.97503-0.94538 0.61276-1.4787-0.52362-0.94446-1.0472-1.8889-1.5709-2.8334z"/></svg>
